!!!OTL: Te amare
**kern
*I"Guitarra acústica
*I'Guit. ac.
!!pagebreak:original
*clefG2
*Trd0c0
*k[b-]
*F:
*M6/8
=1
!LO:TX:t=[quarter]=120
8cL
8e
8gJ
8ddL
8cc
8b-J
=2
8aL
16aL
16g
16a
16b-JJ
4.cc
=3
8AL
8c#X
8eJ
8gL
8f
8eJ
=4
8dL
16dL
16c#X
16d
16eJJ
4.f
=5
8cL
8e
8gJ
8ddL
8cc
8b-J
=6
8aL
16aL
16g
16a
16b-JJ
4.cc
!!linebreak:original
=7
8aL
8cc#X
8eeJ
8ggL
8ff
8eeJ
=8
4.f 4.a 4.dd
8r
4g 4a 4cc#X
=9
4.f 4.a 4.dd
8r
4g 4a 4cc#X
=10
4.f 4.a 4.dd
8r
8aL
8aJ
=11!|:
((4.a 4.ff
4a 4ff))
8r
=12
4g 4ee
8e 8cc#X
8c#X 8a
4e 4g
=13
4.d 4.f
8r
8fL 8dd
8eJ 8cc#X
!!linebreak:original
=14
8.gL 8.ee
16ek 16cc#X
8c#XJ 8a
8c# 8f
((4e 4g
=15
4.d 4.f))
8r
8gL 8b-
8aJ
=16
8.gL
16ek
8gJ
8cc 8ee
4b- 4dd
=17
4.f 4.a
8r
8fL 8dd
8eJ 8cc#X
=18
8.gL 8.ee
16ek 16cc#X
8c#XJ 8a
8c# 8f
((4e 4g
=19
4.d 4.f))
8r
8gL 8b-
8aJ
=20
8.gL
16f#Xk
8gJ
8cc 8ee
4b- 4dd
!!linebreak:original
=21
4.f 4.a
8r
8fL 8dd
8eJ 8cc#X
=22
8.gL 8.ee
16ek 16cc#X
8c#XJ 8a
8c# 8a
((4e 4g
=23
!LO:TX:b:B:t=Fine
4.d 4.f))
8r
8gL 8b-
8aJ
=24:|!
((4.e 4.g
8d 8f))
4r
=25
8.aL 8.ff
16ak 16ff
8aJ 8ff
8aL 8ff
8g 8ee
8fJ 8dd
=26
4g 4ee
((8e 8cc#X
8eL 8cc#))
8e 8cc#
8fJ 8dd
!!linebreak:original
=27
8.gL 8.ee
16ek 16cc#X
8c#XJ 8a
8c# 8a
4e 4g
=28
4.d 4.f
8r
8gL 8b-
8aJ
=29
8.gL
16f#Xk
8gJ
8cc 8ee
4b- 4dd
=30
4.d 4.f
8r
8fL 8dd
8eJ 8cc#X
=31
8.gL 8.ee
16ek 16cc#X
8c#XJ 8a
8c# 8a
4e 4g
!!linebreak:original
=32
4.d 4.f
8r
8gL 8b-
8aJ
=33
8.gL
16f#Xk
8gJ
8cc 8ee
4b- 4dd
=34
4.d 4.f
8r
8fL 8dd
8eJ 8cc#X
=35
8.gL 8.ee
16ek 16cc#X
8c#XJ 8a
8c# 8a
4e 4g
=36
4.d 4.f
8r
8aL
!LO:TX:a:B:t=D.S. al Fine
8aJ
==
*-